Catalina-dark/actions/22/layer-previous.svg

<svg xmlns="http://www.w3.org/2000/svg" viewBox="0 0 22 22">
  <defs id="defs3051">
    <style type="text/css" id="current-color-scheme">
      .ColorScheme-Text {
        color:#f2f2f2;
      }
      .ColorScheme-Highlight {
        color:#3daee9;
      }
      </style>
  </defs>
 <path 
     style="fill:currentColor;fill-opacity:1;stroke:none" 
     d="M 11,1.701172 2.5664061,5.9179688 11,10.134766 19.433594,5.9179688 11,1.701172 Z M 4.9160155,14.90625 2.5664061,16.082031 11,20.298828 19.433594,16.082031 17.083984,14.90625 11,17.949219 4.9160155,14.90625 Z"
     class="ColorScheme-Text"
     />
 <path 
     style="fill:currentColor;fill-opacity:1;stroke:none" 
     class="ColorScheme-Highlight"
     d="M 7.5722656 11 C 7.3705704 10.999984 7.168201 11.076 7.015625 11.228516 C 6.7103415 11.53362 6.7103314 12.036654 7.015625 12.341797 L 10.443359 15.769531 C 10.595901 15.922048 10.799085 16 11 16 C 11.200759 16 11.404069 15.92203 11.556641 15.769531 L 14.984375 12.341797 C 15.136972 12.189199 15.212893 11.986883 15.212891 11.785156 C 15.21289 11.583431 15.137003 11.381078 14.984375 11.228516 C 14.679241 10.923382 14.178251 10.923435 13.873047 11.228516 L 11 14.101562 L 8.1269531 11.228516 C 7.974407 11.075957 7.7739609 11.000016 7.5722656 11 z "
     />
</svg>

<svg width="22" height="22" viewBox="2.566 1.701 16.87 18.6" xmlns="http://www.w3.org/2000/svg">
<defs>
<style id="current-color-scheme" type="text/css">.ColorScheme-Text {
        color:#f2f2f2;
      }
      .ColorScheme-Highlight {
        color:#3daee9;
      }</style>
</defs>
<path class="ColorScheme-Text" d="m11 1.7012-8.4336 4.2168 8.4336 4.2168 8.4336-4.2168-8.4336-4.2168zm-6.084 13.205-2.3496 1.1758 8.4336 4.2168 8.4336-4.2168-2.3496-1.1758-6.084 3.043-6.084-3.043z" fill="currentColor"/>
<path class="ColorScheme-Highlight" d="m7.5723 11c-0.2017-1.6e-5 -0.40406 0.076-0.55664 0.22852-0.30528 0.3051-0.30529 0.80814 0 1.1133l3.4277 3.4277c0.15254 0.15252 0.35573 0.23047 0.55664 0.23047 0.20076 0 0.40407-0.07797 0.55664-0.23047l3.4277-3.4277c0.1526-0.1526 0.22852-0.35491 0.22852-0.55664-1e-6 -0.20172-0.075888-0.40408-0.22852-0.55664-0.30513-0.30513-0.80612-0.30508-1.1113 0l-2.873 2.873-2.873-2.873c-0.15255-0.15256-0.35299-0.2285-0.55469-0.22852z" fill="currentColor"/>
</svg>
